src/assets/transitions/homeSpacer1.svg

<svg xmlns="http://www.w3.org/2000/svg" width="900" height="200"><path fill="#F4F3EF" d="M0 0h900v200H0z"/><path fill="#eee" d="m0 130 82-2 82-17h81l82-1 82 17 82-22 82 9 82-2 81 19 82-15 82 2v83H0Z"/><path fill="#e1f0da" d="m0 125 82-8 82 2 81 10 82 1 82-10 82 8h82l82-10h81l82 23 82-15v75H0Z"/><path fill="#d3f2c6" d="m0 133 82 17 82-19 81 7 82 9 82-2 82-4 82-12 82 7 81 10 82-5 82-10v70H0Z"/><path fill="#c5f3b2" d="M0 144h82l82 9 81-11 82 2 82 9 82-11 82 9 82 5 81 4 82 1 82-14v54H0Z"/><path fill="#b6f49e" d="m0 170 82-5 82-2 81-4 82 2 82 9 82-1 82-9 82-6 81 8 82 4 82-7v42H0Z"/><path fill="#a5f589" d="m0 171 82 3 82-7 81 7 82 4 82-5 82-2 82 2 82-6 81 4 82-5 82 4v31H0Z"/><path fill="#93f673" d="m0 182 82 8 82-7 81-4 82 6 82-6 82 4 82-4 82 1 81-2 82 6 82-5v22H0Z"/></svg>

<svg id="visual" viewBox="0 0 900 200" width="900" height="200" xmlns="http://www.w3.org/2000/svg" xmlns:xlink="http://www.w3.org/1999/xlink" version="1.1"><rect x="0" y="0" width="900" height="200" fill="#F4F3EF"></rect><path d="M0 130L82 128L164 111L245 111L327 110L409 127L491 105L573 114L655 112L736 131L818 116L900 118L900 201L818 201L736 201L655 201L573 201L491 201L409 201L327 201L245 201L164 201L82 201L0 201Z" fill="#eeeeee"></path><path d="M0 125L82 117L164 119L245 129L327 130L409 120L491 128L573 128L655 118L736 118L818 141L900 126L900 201L818 201L736 201L655 201L573 201L491 201L409 201L327 201L245 201L164 201L82 201L0 201Z" fill="#e1f0da"></path><path d="M0 133L82 150L164 131L245 138L327 147L409 145L491 141L573 129L655 136L736 146L818 141L900 131L900 201L818 201L736 201L655 201L573 201L491 201L409 201L327 201L245 201L164 201L82 201L0 201Z" fill="#d3f2c6"></path><path d="M0 144L82 144L164 153L245 142L327 144L409 153L491 142L573 151L655 156L736 160L818 161L900 147L900 201L818 201L736 201L655 201L573 201L491 201L409 201L327 201L245 201L164 201L82 201L0 201Z" fill="#c5f3b2"></path><path d="M0 170L82 165L164 163L245 159L327 161L409 170L491 169L573 160L655 154L736 162L818 166L900 159L900 201L818 201L736 201L655 201L573 201L491 201L409 201L327 201L245 201L164 201L82 201L0 201Z" fill="#b6f49e"></path><path d="M0 171L82 174L164 167L245 174L327 178L409 173L491 171L573 173L655 167L736 171L818 166L900 170L900 201L818 201L736 201L655 201L573 201L491 201L409 201L327 201L245 201L164 201L82 201L0 201Z" fill="#a5f589"></path><path d="M0 182L82 190L164 183L245 179L327 185L409 179L491 183L573 179L655 180L736 178L818 184L900 179L900 201L818 201L736 201L655 201L573 201L491 201L409 201L327 201L245 201L164 201L82 201L0 201Z" fill="#93f673"></path></svg>
